svgs/light/book-copy.svg

<svg xmlns="http://www.w3.org/2000/svg" viewBox="0 0 576 512"><!--! Font Awesome Pro 6.6.0 by @fontawesome - https://fontawesome.com License - https://fontawesome.com/license (Commercial License) Copyright 2024 Fonticons, Inc. --><path d="M224 64c0-17.7 14.3-32 32-32l272 0c8.8 0 16 7.2 16 16l0 224c0 8.8-7.2 16-16 16l-272 0c-11.7 0-22.6 3.1-32 8.6L224 64zm-32 0l0 288c0 35.3 28.7 64 64 64l272 0 32 0c8.8 0 16-7.2 16-16s-7.2-16-16-16l-16 0 0-66.7c18.6-6.6 32-24.4 32-45.3l0-224c0-26.5-21.5-48-48-48L256 0c-35.3 0-64 28.7-64 64zm64 320c-17.7 0-32-14.3-32-32s14.3-32 32-32l256 0 0 64-256 0zm96 96l0-32-32 0 0 32L64 480c-17.7 0-32-14.3-32-32s14.3-32 32-32l120.4 0c-8.3-9.2-14.8-20.1-19-32L64 384c-11.7 0-22.6 3.1-32 8.6L32 160c0-17.7 14.3-32 32-32l96 0 0-32L64 96C28.7 96 0 124.7 0 160L0 448c0 35.3 28.7 64 64 64l272 0 32 0c8.8 0 16-7.2 16-16s-7.2-16-16-16l-16 0z"/></svg>

<svg xmlns="http://www.w3.org/2000/svg" viewBox="0 0 576 512"><!--! Font Awesome Pro 6.4.2 by @fontawesome - https://fontawesome.com License - https://fontawesome.com/license (Commercial License) Copyright 2023 Fonticons, Inc. --><path d="M224 64c0-17.7 14.3-32 32-32H528c8.8 0 16 7.2 16 16V272c0 8.8-7.2 16-16 16H256c-11.7 0-22.6 3.1-32 8.6V64zm-32 0V352c0 35.3 28.7 64 64 64H528h32c8.8 0 16-7.2 16-16s-7.2-16-16-16H544V317.3c18.6-6.6 32-24.4 32-45.3V48c0-26.5-21.5-48-48-48H256c-35.3 0-64 28.7-64 64zm64 320c-17.7 0-32-14.3-32-32s14.3-32 32-32H512v64H256zm96 96V448H320v32H64c-17.7 0-32-14.3-32-32s14.3-32 32-32H184.4c-8.3-9.2-14.8-20.1-19-32H64c-11.7 0-22.6 3.1-32 8.6V160c0-17.7 14.3-32 32-32h96V96H64C28.7 96 0 124.7 0 160V448c0 35.3 28.7 64 64 64H336h32c8.8 0 16-7.2 16-16s-7.2-16-16-16H352z"/></svg>
